X:12
T:Battle Of Hexham. Tho24CDs1792.12, The
M:6/8
L:1/8
Q:3/8=120
C:"84"
B:Thompson 24 CDs 1792
Z:Village Music Project, Chris Partington, 1999 & 2017
W:Cast off 2 Cu: up again .| lead down the middle,up again :| Allemande with
W:your  partner :|. hands 6 quite round :|
K:G
|:GBd Bdg|bgd dcB|Ace dBG|FGAD3|
GBd Bdg|bgd dcB|Ace dcB|AGFG3:|
|:DFA DGB|DAc DBd|cec AcA|FAFD3|
GBd dcB|Ace efg|ded cBA|G3-[G,3G3]:|

